lib/flags/m/RWA.svg

<svg xmlns="http://www.w3.org/2000/svg" fill="none" viewBox="0 0 20 15"><mask id="RWA_svg__a" width="20" height="15" x="0" y="0" mask-type="alpha" maskUnits="userSpaceOnUse"><path fill="#fff" d="M0 0H20V15H0z"/></mask><g mask="url(#RWA_svg__a)"><path fill="#FECA00" fill-rule="evenodd" d="M0 0V15H20V0H0Z" clip-rule="evenodd"/><mask id="RWA_svg__b" width="20" height="15" x="0" y="0" mask-type="alpha" maskUnits="userSpaceOnUse"><path fill="#fff" fill-rule="evenodd" d="M0 0V15H20V0H0Z" clip-rule="evenodd"/></mask><g fill-rule="evenodd" clip-rule="evenodd" mask="url(#RWA_svg__b)"><path fill="#3CA5D9" d="M0 0V8.75H20V0H0Z"/><path fill="#5A962A" d="M0 11.25V15H20V11.25H0Z"/><path fill="#FFDC17" d="M15.0511 7.416C15.0304 7.4165 15.0096 7.41675 14.9887 7.41675C14.9709 7.41675 14.9531 7.41657 14.9353 7.4162L14.5575 8.64986L14.4776 7.36486C14.4394 7.35697 14.4014 7.34821 14.3638 7.3386L13.7096 8.45107L13.9311 7.18437C13.8954 7.16781 13.8603 7.15043 13.8255 7.13227L12.9309 8.06421L13.4411 6.88371C13.41 6.8593 13.3795 6.83418 13.3497 6.80836L12.2633 7.51014L13.0336 6.47968C13.0088 6.44855 12.9846 6.41682 12.9613 6.3845L11.7429 6.81872L12.7307 5.99346C12.7136 5.95709 12.6973 5.92024 12.682 5.88294L11.3978 6.02723L12.5498 5.45028C12.5417 5.41077 12.5345 5.37091 12.5283 5.33073L11.2465 5.17834L12.5012 4.87991C12.5025 4.83909 12.5048 4.79852 12.5081 4.75822L11.2971 4.31781L12.5864 4.31367C12.5973 4.27413 12.6091 4.23499 12.6219 4.19627L11.5471 3.49204L12.8028 3.78217C12.8226 3.74634 12.8433 3.71106 12.8648 3.67634L11.9828 2.74554L13.138 3.31477C13.1654 3.28462 13.1936 3.25515 13.2225 3.22637L12.5808 2.11856L13.5727 2.93644C13.6063 2.91345 13.6405 2.89126 13.6752 2.86989L13.3088 1.64489L14.0838 2.66757C14.1216 2.65297 14.1599 2.63926 14.1987 2.62646L14.1277 1.35007L14.644 2.5234C14.6838 2.51794 14.724 2.51342 14.7644 2.50985L14.9932 1.25L15.2223 2.51068C15.2625 2.51437 15.3024 2.51901 15.342 2.52458L15.8588 1.35007L15.7877 2.62941C15.8258 2.64215 15.8634 2.65578 15.9007 2.67027L16.6777 1.64489L16.3099 2.87458C16.3437 2.89556 16.377 2.91731 16.4097 2.93982L17.4057 2.11856L16.7607 3.23207C16.7886 3.26001 16.8158 3.28861 16.8423 3.31784L18.0037 2.74554L17.1163 3.68209C17.1369 3.71555 17.1567 3.74953 17.1757 3.78402L18.4394 3.49204L17.3572 4.20113C17.3694 4.23825 17.3806 4.27576 17.391 4.31364L18.6894 4.31781L17.4696 4.7614C17.4727 4.79994 17.4749 4.83873 17.4762 4.87775L18.74 5.17834L17.449 5.33182C17.443 5.37024 17.4362 5.40837 17.4285 5.44619L18.5887 6.02723L17.2959 5.88197C17.2812 5.91776 17.2657 5.95312 17.2493 5.98805L18.2436 6.81872L17.018 6.38195C16.9956 6.41313 16.9724 6.44376 16.9485 6.47384L17.7232 7.51014L16.6317 6.80502C16.6027 6.83015 16.5732 6.85462 16.5431 6.87841L17.0556 8.06421L16.1579 7.12913C16.124 7.14701 16.0896 7.16413 16.0547 7.18048L16.2769 8.45107L15.6215 7.33659C15.5843 7.34622 15.5468 7.35501 15.509 7.36296L15.429 8.64986L15.0511 7.416ZM14.9662 6.50927C15.8416 6.50927 16.5513 5.80996 16.5513 4.9473C16.5513 4.08465 15.8416 3.38534 14.9662 3.38534C14.0909 3.38534 13.3812 4.08465 13.3812 4.9473C13.3812 5.80996 14.0909 6.50927 14.9662 6.50927ZM15.8779 4.99303C15.8779 5.48637 15.4779 5.8863 14.9846 5.8863C14.4913 5.8863 14.0913 5.48637 14.0913 4.99303C14.0913 4.49969 14.4913 4.09976 14.9846 4.09976C15.4779 4.09976 15.8779 4.49969 15.8779 4.99303Z"/></g></g></svg>

<svg xmlns="http://www.w3.org/2000/svg" fill="none" viewBox="0 0 20 15"><mask id="RWA_svg__a" width="20" height="15" x="0" y="0" maskUnits="userSpaceOnUse"><path fill="#fff" d="M0 0h20v15H0z"/></mask><g mask="url(#RWA_svg__a)"><path fill="#FECA00" fill-rule="evenodd" d="M0 0v15h20V0H0z" clip-rule="evenodd"/><mask id="RWA_svg__b" width="20" height="15" x="0" y="0" maskUnits="userSpaceOnUse"><path fill="#fff" fill-rule="evenodd" d="M0 0v15h20V0H0z" clip-rule="evenodd"/></mask><g fill-rule="evenodd" clip-rule="evenodd" mask="url(#RWA_svg__b)"><path fill="#3CA5D9" d="M0 0v8.75h20V0H0z"/><path fill="#5A962A" d="M0 11.25V15h20v-3.75H0z"/><path fill="#FFDC17" d="M15.051 7.416a2.582 2.582 0 01-.116 0l-.377 1.234-.08-1.285a2.485 2.485 0 01-.114-.026L13.71 8.45l.221-1.267a2.518 2.518 0 01-.105-.052l-.895.932.51-1.18a2.443 2.443 0 01-.091-.076l-1.087.702.77-1.03a2.596 2.596 0 01-.072-.096l-1.218.435.988-.826a2.405 2.405 0 01-.049-.11l-1.284.144 1.152-.577a2.357 2.357 0 01-.022-.12l-1.282-.152 1.255-.298.007-.122-1.21-.44 1.288-.004c.011-.04.023-.079.036-.118l-1.075-.704 1.256.29.062-.106-.882-.93 1.155.569c.027-.03.056-.06.085-.089L12.58 2.12l.992.817a1.78 1.78 0 01.102-.066l-.366-1.225.775 1.023a2.25 2.25 0 01.115-.042l-.071-1.276.516 1.173c.04-.005.08-.01.12-.013l.23-1.26.228 1.26.12.015.517-1.175-.071 1.28c.038.012.075.026.113.04l.777-1.025-.368 1.23c.034.02.067.042.1.065l.996-.821-.645 1.113c.028.028.055.057.081.086l1.162-.572-.888.936.06.102 1.264-.292-1.083.71c.012.036.024.074.034.112l1.298.004-1.22.443c.004.039.006.078.007.117l1.264.3-1.291.154a2.397 2.397 0 01-.02.114l1.16.581-1.293-.145a2.47 2.47 0 01-.047.106l.995.83-1.226-.436a2.38 2.38 0 01-.07.092l.775 1.036-1.091-.705c-.03.025-.059.05-.089.073l.513 1.186-.898-.935a2.506 2.506 0 01-.103.051l.222 1.271-.656-1.114a2.48 2.48 0 01-.112.026l-.08 1.287-.378-1.234zm-.085-.907c.876 0 1.585-.699 1.585-1.562 0-.862-.71-1.562-1.585-1.562s-1.585.7-1.585 1.562c0 .863.71 1.562 1.585 1.562zm.912-1.516a.893.893 0 11-1.787 0 .893.893 0 011.787 0z"/></g></g></svg>
